!!!OTL: Verschlafener Jaeger Es wollt es ein Jaegerlein jagen,
!!!ARE: Europa, Mitteleuropa, Deutschland / France, Elsass
!!!YOR: 7, S. 219
!!    1940 gedruckt (Umbruchexemplar)
!!!SCT: Q0152R
!!!YEM: Copyright 1995, estate of Helmut Schaffrath.
**kern
*ICvox
*Ivox
*M4/4
*k[]
*C:
{4g
=1
8e
8g
4g
8e
8e
4g
=2
2a
4a}
{4f
=3
8d
8d
4f
4d
8d
8f
=4
2g
8g}
{8cc
8cc
8cc
=5
8.cc
16cc
4cc
8.cc
16cc
4cc
=6
8a
8cc
8b
8cc
8dd
8cc
8b}
{8a
=7
8.g
16g
4cc
8.ee
16ee
4dd
=8
2.cc}
{8.g
16g
=9
4e
8.g
16g
4e
8.g
16g
=10
4a
4a
4a}
{8f
8f
=11
8d
8d
8f
8d
4d
4f
=12
4g
4g
4g}
{4cc
=13
8.cc
16cc
4cc
8.cc
16cc
4cc
=14
8a
8cc
8b
8cc
8dd
8cc
8b}
{8a
=15
8.g
16g
4cc
8.ee
16ee
4dd
=16
2.cc}
==
!!!AGN: Ballade, Verfuehrung, Versagen, Spott; Trink - Lied
!! Sauf - Refrain in Zeile 5 und 6.
!!!ONB: ESAC (Essen Associative Code) Database: BALLADE
!!!AMT: simple quadruple
!!!AIN: vox
!!!EED: Helmut Schaffrath
!!!EEV: 1.0
*-
